curious-marx.svg

<svg height="128pt" viewBox="0 0 128 128" width="128pt" xmlns="http://www.w3.org/2000/svg"><path d="m53.82 15.02c6.19-3.2 13.29-4.76 20.26-4.33 6.19.61 11.14 4.75 15.93 8.34 4.35 3.96 9.89 7.77 10.62 14.13 4.66 4.8 11.09 7.16 16.66 10.67 4.58 3.24 7.97 8.22 8.38 13.92.63 6.56-.95 13.3-4 19.11-2.72 4.99-8.91 5.67-13.66 7.77 1.39 6.58 1.22 13.58-1.7 19.74-4.76 3.61-10.19 6.22-14.94 9.85-8.79 6.18-19.96 6.74-30.33 7.05-4.29-.29-8.63.92-12.86-.2-11.11-2.56-21.43-7.6-31.33-13.12-4.36-7.26-2.41-16.13-1.57-24.07.21-4.28 1.59-8.45 1.95-12.67-6.41-4.74-13.62-10.1-15.61-18.26-.93-4.15.49-8.36 2.69-11.86 3.22-6.07 7.73-11.92 14.19-14.75 6.99-3.63 14.98-4.2 22.65-5.18 4.89-.36 8.64-3.75 12.67-6.14m-24.37 24.06c1.78 6.73 1.97 13.71 3.35 20.5.96 4.37 5.88 5.39 9.72 4.96-.14.48-.42 1.44-.56 1.92-1.22.96-2.45 1.99-2.51 3.68.98-.06 2.95-.19 3.93-.25-2.07 3.69-6.18 5.72-8.05 9.56-3.72 8.88 2.94 20.17 12.61 20.9 4.42.05 8.89-.79 13.02-2.35 2.37-.62 1.84-3.3 1.95-5.13 1.9-1.98 1.85-4.41.63-6.73 1.58-2.04 1.52-4.6-.29-6.48 4.03-1.25 8.24-1.77 12.26-3 1.52-.3 2.3-1.73 2.43-3.16 1.75 2.32 4.94 1.78 7.45 1.62-.58-1.99-1.3-3.93-1.99-5.89 4.05-1.02 9.06-3.42 9.25-8.21.12-6.15-.51-12.81 3.08-18.21-3.24-8.4-9.24-16.75-18.46-18.96-9.89-2.23-20.3-3.06-30.35-1.44-7.86 2.78-13.25 9.8-17.47 16.67z" fill="#9c9c9c"/><path d="m51.81 68.66c6.74-1.53 14.03-1.29 20.09 2.32-7.62 1.7-15.18 3.67-22.79 5.4 1.17-2.47 2.28-5 2.7-7.72z" fill="#9c9c9c"/><path d="m29.45 39.08c4.22-6.87 9.61-13.89 17.47-16.67 10.05-1.62 20.46-.79 30.35 1.44 9.22 2.21 15.22 10.56 18.46 18.96-3.59 5.4-2.96 12.06-3.08 18.21-.19 4.79-5.2 7.19-9.25 8.21-1.5-4.81.23-10.99-4.02-14.61-4.88-4-11.4-4.96-17.46-5.74-4.78-.53-9.98-.74-14.34 1.62-3.17 1.77-3.8 5.65-4.38 8.9-.01.68-.05 2.04-.07 2.71-.15.61-.46 1.82-.61 2.43-3.84.43-8.76-.59-9.72-4.96-1.38-6.79-1.57-13.77-3.35-20.5m11.4-7.19c.83 2.88 3.69 1.39 5.55.67 4.5-1.9 9.53-.88 13.74 1.25.8-.65 1.58-1.32 2.34-2-2.99-4.53-9.48-4.83-14.35-4.11-2.59.78-6.41 1.16-7.28 4.19m8.47 5.43c-3.57 2.25-3.49 8.23.11 10.42 3.11 1.59 6.4-1.62 6.38-4.73.62-3.41-2.97-7.79-6.49-5.69m17.81.86c-1.7.71-1.58 3.05.08 3.74 1.6.26 3.1-.71 4.65-1.01-1.1 2.28-1.65 5.08-.14 7.32 1.22 2.28 4.71 3.08 6.47.94 2.31-2.22 1.84-5.65.75-8.34 2.01.75 3.91 1.78 6.01 2.27.54-.53 1.6-1.59 2.13-2.12-4.88-5.54-13.6-5.59-19.95-2.8z" fill="#fbcd53"/><path d="m55.46 57.45c5.28-2.48 11.51-.88 16.47 1.62 3.91 2.04 3.24 6.96 3.98 10.63l.35.74c-1.46.18-2.91.31-4.36.54-6.06-3.61-13.35-3.85-20.09-2.32-.44-2.15-1.01-4.28-1.74-6.36 1.57-1.84 3.1-3.88 5.39-4.85m.64 6.08c5.48-.63 10.92 1.07 15.14 4.59.81-.8 2.53-1.58 1.75-2.99-4.5-4.64-11.61-6.34-17.86-5.3-2.78.27-1.43 4.44.97 3.7z" fill="#fbcd53"/><g fill="#343434"><path d="m40.85 31.89c.87-3.03 4.69-3.41 7.28-4.19 4.87-.72 11.36-.42 14.35 4.11-.76.68-1.54 1.35-2.34 2-4.21-2.13-9.24-3.15-13.74-1.25-1.86.72-4.72 2.21-5.55-.67z"/><path d="m67.13 38.18c6.35-2.79 15.07-2.74 19.95 2.8-.53.53-1.59 1.59-2.13 2.12-2.1-.49-4-1.52-6.01-2.27-2.35-.33-4.74-.3-7.08.08-1.55.3-3.05 1.27-4.65 1.01-1.66-.69-1.78-3.03-.08-3.74z"/><path d="m47.58 50.5c4.36-2.36 9.56-2.15 14.34-1.62 6.06.78 12.58 1.74 17.46 5.74 4.25 3.62 2.52 9.8 4.02 14.61.69 1.96 1.41 3.9 1.99 5.89-2.51.16-5.7.7-7.45-1.62-.55-1.03-1.12-2.04-1.68-3.06l-.35-.74c-.74-3.67-.07-8.59-3.98-10.63-4.96-2.5-11.19-4.1-16.47-1.62-2.29.97-3.82 3.01-5.39 4.85-1.53-2.4-4.08-3.44-6.87-2.9.58-3.25 1.21-7.13 4.38-8.9z"/><path d="m42.52 64.54c.15-.61.46-1.82.61-2.43.4 2.57.77 5.2.25 7.78-.98.06-2.95.19-3.93.25.06-1.69 1.29-2.72 2.51-3.68.14-.48.42-1.44.56-1.92z"/></g><path d="m49.32 37.32c3.52-2.1 7.11 2.28 6.49 5.69.02 3.11-3.27 6.32-6.38 4.73-3.6-2.19-3.68-8.17-.11-10.42z" fill="#644707"/><path d="m71.86 40.91c2.34-.38 4.73-.41 7.08-.08 1.09 2.69 1.56 6.12-.75 8.34-1.76 2.14-5.25 1.34-6.47-.94-1.51-2.24-.96-5.04.14-7.32z" fill="#644707"/><path d="m56.1 63.53c-2.4.74-3.75-3.43-.97-3.7 6.25-1.04 13.36.66 17.86 5.3.78 1.41-.94 2.19-1.75 2.99-4.22-3.52-9.66-5.22-15.14-4.59z" fill="#644707"/><path d="m43.2 59.4c2.79-.54 5.34.5 6.87 2.9.73 2.08 1.3 4.21 1.74 6.36-.42 2.72-1.53 5.25-2.7 7.72 7.61-1.73 15.17-3.7 22.79-5.4 1.45-.23 2.9-.36 4.36-.54.56 1.02 1.13 2.03 1.68 3.06-.13 1.43-.91 2.86-2.43 3.16-4.02 1.23-8.23 1.75-12.26 3 1.81 1.88 1.87 4.44.29 6.48 1.22 2.32 1.27 4.75-.63 6.73-.11 1.83.42 4.51-1.95 5.13-4.13 1.56-8.6 2.4-13.02 2.35-9.67-.73-16.33-12.02-12.61-20.9 1.87-3.84 5.98-5.87 8.05-9.56.52-2.58.15-5.21-.25-7.78.02-.67.06-2.03.07-2.71z" fill="#ed8f1d"/></svg>

<?xml version="1.0" encoding="UTF-8" ?>
<!DOCTYPE svg PUBLIC "-//W3C//DTD SVG 1.1//EN" "http://www.w3.org/Graphics/SVG/1.1/DTD/svg11.dtd">
<svg width="128pt" height="128pt" viewBox="0 0 128 128" version="1.1" xmlns="http://www.w3.org/2000/svg">
<g id="#9c9c9cff">
<path fill="#9c9c9c" opacity="1.00" d=" M 53.82 15.02 C 60.01 11.82 67.11 10.26 74.08 10.69 C 80.27 11.30 85.22 15.44 90.01 19.03 C 94.36 22.99 99.90 26.80 100.63 33.16 C 105.29 37.96 111.72 40.32 117.29 43.83 C 121.87 47.07 125.26 52.05 125.67 57.75 C 126.30 64.31 124.72 71.05 121.67 76.86 C 118.95 81.85 112.76 82.53 108.01 84.63 C 109.40 91.21 109.23 98.21 106.31 104.37 C 101.55 107.98 96.12 110.59 91.37 114.22 C 82.58 120.40 71.41 120.96 61.04 121.27 C 56.75 120.98 52.41 122.19 48.18 121.07 C 37.07 118.51 26.75 113.47 16.85 107.95 C 12.49 100.69 14.44 91.82 15.28 83.88 C 15.49 79.60 16.87 75.43 17.23 71.21 C 10.82 66.47 3.61 61.11 1.62 52.95 C 0.69 48.80 2.11 44.59 4.31 41.09 C 7.53 35.02 12.04 29.17 18.50 26.34 C 25.49 22.71 33.48 22.14 41.15 21.16 C 46.04 20.80 49.79 17.41 53.82 15.02 M 29.45 39.08 C 31.23 45.81 31.42 52.79 32.80 59.58 C 33.76 63.95 38.68 64.97 42.52 64.54 C 42.38 65.02 42.10 65.98 41.96 66.46 C 40.74 67.42 39.51 68.45 39.45 70.14 C 40.43 70.08 42.40 69.95 43.38 69.89 C 41.31 73.58 37.20 75.61 35.33 79.45 C 31.61 88.33 38.27 99.62 47.94 100.35 C 52.36 100.40 56.83 99.56 60.96 98.00 C 63.33 97.38 62.80 94.70 62.91 92.87 C 64.81 90.89 64.76 88.46 63.54 86.14 C 65.12 84.10 65.06 81.54 63.25 79.66 C 67.28 78.41 71.49 77.89 75.51 76.66 C 77.03 76.36 77.81 74.93 77.94 73.50 C 79.69 75.82 82.88 75.28 85.39 75.12 C 84.81 73.13 84.09 71.19 83.40 69.23 C 87.45 68.21 92.46 65.81 92.65 61.02 C 92.77 54.87 92.14 48.21 95.73 42.81 C 92.49 34.41 86.49 26.06 77.27 23.85 C 67.38 21.62 56.97 20.79 46.92 22.41 C 39.06 25.19 33.67 32.21 29.45 39.08 Z" />
<path fill="#9c9c9c" opacity="1.00" d=" M 51.81 68.66 C 58.55 67.13 65.84 67.37 71.90 70.98 C 64.28 72.68 56.72 74.65 49.11 76.38 C 50.28 73.91 51.39 71.38 51.81 68.66 Z" />
</g>
<g id="#fbcd53ff">
<path fill="#fbcd53" opacity="1.00" d=" M 29.45 39.08 C 33.67 32.21 39.06 25.19 46.92 22.41 C 56.97 20.79 67.38 21.62 77.27 23.85 C 86.49 26.06 92.49 34.41 95.73 42.81 C 92.14 48.21 92.77 54.87 92.65 61.02 C 92.46 65.81 87.45 68.21 83.40 69.23 C 81.90 64.42 83.63 58.24 79.38 54.62 C 74.50 50.62 67.98 49.66 61.92 48.88 C 57.14 48.35 51.94 48.14 47.58 50.50 C 44.41 52.27 43.78 56.15 43.20 59.40 C 43.19 60.08 43.15 61.44 43.13 62.11 C 42.98 62.72 42.67 63.93 42.52 64.54 C 38.68 64.97 33.76 63.95 32.80 59.58 C 31.42 52.79 31.23 45.81 29.45 39.08 M 40.85 31.89 C 41.68 34.77 44.54 33.28 46.40 32.56 C 50.90 30.66 55.93 31.68 60.14 33.81 C 60.94 33.16 61.72 32.49 62.48 31.81 C 59.49 27.28 53.00 26.98 48.13 27.70 C 45.54 28.48 41.72 28.86 40.85 31.89 M 49.32 37.32 C 45.75 39.57 45.83 45.55 49.43 47.74 C 52.54 49.33 55.83 46.12 55.81 43.01 C 56.43 39.60 52.84 35.22 49.32 37.32 M 67.13 38.18 C 65.43 38.89 65.55 41.23 67.21 41.92 C 68.81 42.18 70.31 41.21 71.86 40.91 C 70.76 43.19 70.21 45.99 71.72 48.23 C 72.94 50.51 76.43 51.31 78.19 49.17 C 80.50 46.95 80.03 43.52 78.94 40.83 C 80.95 41.58 82.85 42.61 84.95 43.10 C 85.49 42.57 86.55 41.51 87.08 40.98 C 82.20 35.44 73.48 35.39 67.13 38.18 Z" />
<path fill="#fbcd53" opacity="1.00" d=" M 55.46 57.45 C 60.74 54.97 66.97 56.57 71.93 59.07 C 75.84 61.11 75.17 66.03 75.91 69.70 L 76.26 70.44 C 74.80 70.62 73.35 70.75 71.90 70.98 C 65.84 67.37 58.55 67.13 51.81 68.66 C 51.37 66.51 50.80 64.38 50.07 62.30 C 51.64 60.46 53.17 58.42 55.46 57.45 M 56.10 63.53 C 61.58 62.90 67.02 64.60 71.24 68.12 C 72.05 67.32 73.77 66.54 72.99 65.13 C 68.49 60.49 61.38 58.79 55.13 59.83 C 52.35 60.10 53.70 64.27 56.10 63.53 Z" />
</g>
<g id="#343434ff">
<path fill="#343434" opacity="1.00" d=" M 40.85 31.89 C 41.72 28.86 45.54 28.48 48.13 27.70 C 53.00 26.98 59.49 27.28 62.48 31.81 C 61.72 32.49 60.94 33.16 60.14 33.81 C 55.93 31.68 50.90 30.66 46.40 32.56 C 44.54 33.28 41.68 34.77 40.85 31.89 Z" />
<path fill="#343434" opacity="1.00" d=" M 67.13 38.18 C 73.48 35.39 82.20 35.44 87.08 40.98 C 86.55 41.51 85.49 42.57 84.95 43.10 C 82.85 42.61 80.95 41.58 78.94 40.83 C 76.59 40.50 74.20 40.53 71.86 40.91 C 70.31 41.21 68.81 42.18 67.21 41.92 C 65.55 41.23 65.43 38.89 67.13 38.18 Z" />
<path fill="#343434" opacity="1.00" d=" M 47.58 50.50 C 51.94 48.14 57.14 48.35 61.92 48.88 C 67.98 49.66 74.50 50.62 79.38 54.62 C 83.63 58.24 81.90 64.42 83.40 69.23 C 84.09 71.19 84.81 73.13 85.39 75.12 C 82.88 75.28 79.69 75.82 77.94 73.50 C 77.39 72.47 76.82 71.46 76.26 70.44 L 75.91 69.70 C 75.17 66.03 75.84 61.11 71.93 59.07 C 66.97 56.57 60.74 54.97 55.46 57.45 C 53.17 58.42 51.64 60.46 50.07 62.30 C 48.54 59.90 45.99 58.86 43.20 59.40 C 43.78 56.15 44.41 52.27 47.58 50.50 Z" />
<path fill="#343434" opacity="1.00" d=" M 42.52 64.54 C 42.67 63.93 42.98 62.72 43.13 62.11 C 43.53 64.68 43.90 67.31 43.38 69.89 C 42.40 69.95 40.43 70.08 39.45 70.14 C 39.51 68.45 40.74 67.42 41.96 66.46 C 42.10 65.98 42.38 65.02 42.52 64.54 Z" />
</g>
<g id="#644707ff">
<path fill="#644707" opacity="1.00" d=" M 49.32 37.32 C 52.84 35.22 56.43 39.60 55.81 43.01 C 55.83 46.12 52.54 49.33 49.43 47.74 C 45.83 45.55 45.75 39.57 49.32 37.32 Z" />
<path fill="#644707" opacity="1.00" d=" M 71.86 40.91 C 74.20 40.53 76.59 40.50 78.94 40.83 C 80.03 43.52 80.50 46.95 78.19 49.17 C 76.43 51.31 72.94 50.51 71.72 48.23 C 70.21 45.99 70.76 43.19 71.86 40.91 Z" />
<path fill="#644707" opacity="1.00" d=" M 56.10 63.53 C 53.70 64.27 52.35 60.10 55.13 59.83 C 61.38 58.79 68.49 60.49 72.99 65.13 C 73.77 66.54 72.05 67.32 71.24 68.12 C 67.02 64.60 61.58 62.90 56.10 63.53 Z" />
</g>
<g id="#ed8f1dff">
<path fill="#ed8f1d" opacity="1.00" d=" M 43.20 59.40 C 45.99 58.86 48.54 59.90 50.07 62.30 C 50.80 64.38 51.37 66.51 51.81 68.66 C 51.39 71.38 50.28 73.91 49.11 76.38 C 56.72 74.65 64.28 72.68 71.90 70.98 C 73.35 70.75 74.80 70.62 76.26 70.44 C 76.82 71.46 77.39 72.47 77.94 73.50 C 77.81 74.93 77.03 76.36 75.51 76.66 C 71.49 77.89 67.28 78.41 63.25 79.66 C 65.06 81.54 65.12 84.10 63.54 86.14 C 64.76 88.46 64.81 90.89 62.91 92.87 C 62.80 94.70 63.33 97.38 60.96 98.00 C 56.83 99.56 52.36 100.40 47.94 100.35 C 38.27 99.62 31.61 88.33 35.33 79.45 C 37.20 75.61 41.31 73.58 43.38 69.89 C 43.90 67.31 43.53 64.68 43.13 62.11 C 43.15 61.44 43.19 60.08 43.20 59.40 Z" />
</g>
</svg>
